X:4015
T:Doon the Brae
T:Old Crossroads, The
R:March
O:Scotland
M:4/4
L:1/8
Q:1/4=90
K:EMin
B,|:"Em"E3F G3A|B2e2 "Bm"dB2A|"Em"G>FGB "D"AFDE|"Bm"F2EF D2B,2|
"Em"E3F G3A|B2e2 "Bm"dB2A|"Em"G>FGB "D"AFDE|1"Bm"F2E2 "Em"E3B,:|2"Bm"F2E2 "Em"E3A
|:"Em"B2e2 e2de|"Bm"f>gfe dB2B|"D"A3B "Bm"d3e|dBAB d2BA|
"Em"B2e2 e2de|"Bm"f>gfe dB2A|"Em"G>FGB "D"AFDE|1"Bm"F2E2 "Em"E3A:|2"Bm"F2E2"Em"E4|

